src/pos-icons/table-column-width.svg

<svg height="24" viewBox="0 0 24 24" width="24" xmlns="http://www.w3.org/2000/svg"><path d="m5 8h14a2 2 0 0 1 2 2v10a2 2 0 0 1 -2 2h-14a2 2 0 0 1 -2-2v-10a2 2 0 0 1 2-2m0 4v3h6v-3zm8 0v3h6v-3zm-8 5v3h6v-3zm8 0v3h6v-3zm-2-15h10v4h-2v-2h-6v2h-2z"/></svg>

<?xml version="1.0" encoding="UTF-8"?><!DOCTYPE svg PUBLIC "-//W3C//DTD SVG 1.1//EN" "http://www.w3.org/Graphics/SVG/1.1/DTD/svg11.dtd"><svg xmlns="http://www.w3.org/2000/svg" xmlns:xlink="http://www.w3.org/1999/xlink" version="1.1" id="mdi-table-column-width" width="24" height="24" viewBox="0 0 24 24"><path d="M5,8H19A2,2 0 0,1 21,10V20A2,2 0 0,1 19,22H5A2,2 0 0,1 3,20V10A2,2 0 0,1 5,8M5,12V15H11V12H5M13,12V15H19V12H13M5,17V20H11V17H5M13,17V20H19V17H13M11,2H21V6H19V4H13V6H11V2Z" /></svg>
